X:1
T:B. D. Ackley
T:Lizzie DeArmond
T:My Heart Keeps Right
%%score { ( 1 2 ) | ( 3 4 ) }
L:1/8
M:4/4
K:Db
V:1 treble 
V:2 treble 
V:3 bass 
V:4 bass 
V:1
{/x} FG | A2 A2 d3 c | ccB>A B2 EF | G2 G2 [Gd]3 [Gd] | BAA>=G A2 F_G | A2 A2 d3 c | cBB>=A B2 cd | %7
w: There's a|song of joy, I|sing it ev\- 'ry day, For my|ev\- 'ry sin the|Lord has washed a\- way; Trust\- ing|in His word, I|yield to His con\- trol, Since the|
w: As I|live for Him each|bur\- den seems so light; While He|walks with me my|heart is keep\- ing right; In the|nar\- row way I'm|press\- ing tow'rd the goal, * *|
w: All my|doubts are past, I|am se\- cure at last; Tho' my|strength may fail, my|an\- chor hold\- eth fast; Tho' I|once was lost, His|grace hath made me whole, * *|
 e3 f edcB | A4- A2"^Chorus" A2 | d2 d2 d3 c | edAB c3 A | e2 e2 e3 d | cBAG F2 A2 | d2 d2 d3 F | %14
w: lov\- ving Je\- sus saved my|soul. * My|heart keeps right since|Je\- sus saved my soul; My|ev\- 'ry tho't is|un\- der His con\- trol; With|songs of joy I'm|
w: |||||||
w: |||||||
 GABc d2 =d2 | f2 e2 [da]3 A | BA[Q:1/4=72]"^Adagio" !fermata!e>[Q:1/4=112]"^Moderato"d d2 |] %17
w: press\- ing tow'rd the goal; My|heart keeps right since|Je\- sus saved my soul.|
w: |||
w: |||
V:2
 DE | F2 F2 F3 F | AGG>G F2 CD | C2 C2 z x3 | FFF>=E F2 D_E | F2 F2 F3 A | AGG>G G2 _AA | %7
 =G3 G GGGE | E=DEF G2 G2 | F2 F2 F3 F | FFFF G3 G | G2 G2 G3 F | GGFE D2 F2 | F2 F2 F3 D | %14
 DDDG A2 A2 | A2 B2 A3 F | GG G>F F2 |] %17
V:3
 A,A, | B,2 B,2 A,3 D | DDD>C D2 A,A, | A,2 A,2 E3 C | DDD>D D2 A,A, | D2 D2 A,3 D | DDD>C D2 ED | %7
w: |||||||
 D3 D DFED | C=B,CD C2 C2 | D2 D2 A,3 A, | A,A,DD A,3 C | C2 C2 C3 D | ECDA, A,2 A,2 | %13
w: * * * * * Since|Je- sus saved my soul. *|||||
 A,2 A,2 A,3 A, | G,F,G,A, D2 B,2 | B,2 E2 F3 D | CC C>[A,D] [A,D]2 |] %17
w: ||||
V:4
 D,D, | D,2 D,2 D,3 D, | G,G,G,>G, G,2 G,F, | E,2 E,2 A,3 A, | D,D,D,>D, D,2 D,D, | %5
 D,2 D,2 D,3 D, | G,G,G,>G, G,2 G,F, | E,3 E, E,E,E,E, | A,4- A,2 A,2 | D,2 D,2 D,3 D, | %10
 D,D,D,D, E,3 A, | A,2 A,2 A,3 A, | A,A,A,A, D,2 D,2 | D,2 D,2 D,3 =B,, | B,,D,G,E, F,2 F,2 | %15
 E,2 G,2 A,3 A, | A,A, A,>D, D,2 |] %17

